libs/icons/src/svg/mapped.svg

<svg width="16" height="16" viewBox="0 0 16 16" fill="none" xmlns="http://www.w3.org/2000/svg">
<g clip-path="url(#clip0_3_3356)">
<path fill-rule="evenodd" clip-rule="evenodd" d="M16 1.33335C16 1.12806 15.9054 0.93422 15.7436 0.807882C15.5818 0.681544 15.3708 0.6368 15.1716 0.68659L10.0266 1.97284L6.21082 0.700897C6.09054 0.660802 5.96131 0.65584 5.83831 0.68659L0.504976 2.01992C0.208198 2.09412 0 2.36077 0 2.66669V14.6667C0 14.872 0.094581 15.0658 0.256392 15.1922C0.418203 15.3185 0.629196 15.3632 0.828357 15.3134L5.97335 14.0272L7.12318 14.4105C7.47248 14.5269 7.85002 14.3381 7.96646 13.9888C8.08289 13.6395 7.89411 13.262 7.54482 13.1456L6.21082 12.7009C6.09054 12.6608 5.96131 12.6558 5.83831 12.6866L1.33333 13.8128V3.1872L5.97335 2.0272L9.78918 3.29914C9.90946 3.33924 10.0387 3.3442 10.1617 3.31345L14.6667 2.1872V8.66669C14.6667 9.03488 14.9651 9.33335 15.3333 9.33335C15.7015 9.33335 16 9.03488 16 8.66669V1.33335ZM15.1381 11.8047C15.3984 11.5444 15.3984 11.1223 15.1381 10.8619C14.8777 10.6016 14.4556 10.6016 14.1953 10.8619L11.3333 13.7239L10.4714 12.8619C10.211 12.6016 9.78894 12.6016 9.52859 12.8619C9.26824 13.1223 9.26824 13.5444 9.52859 13.8047L10.8619 15.1381C11.1223 15.3984 11.5444 15.3984 11.8047 15.1381L15.1381 11.8047Z" fill="#202327"/>
</g>
<defs>
<clipPath id="clip0_3_3356">
<rect width="16" height="16" fill="white"/>
</clipPath>
</defs>
</svg>

<svg xmlns="http://www.w3.org/2000/svg" viewBox="0 0 16 16" class="sageicon"><path fill-rule="evenodd" d="M16 1.333a.667.667 0 0 0-.828-.646l-5.145 1.286L6.21.7a.667.667 0 0 0-.373-.014L.505 2.02A.667.667 0 0 0 0 2.667v12a.667.667 0 0 0 .828.646l5.145-1.286 1.15.384a.667.667 0 0 0 .422-1.265L6.21 12.7a.666.666 0 0 0-.373-.014l-4.505 1.126V3.187l4.64-1.16L9.79 3.3c.12.04.25.045.373.014l4.505-1.126v6.48a.667.667 0 1 0 1.333 0V1.333Zm-.862 10.472a.667.667 0 0 0-.943-.943l-2.862 2.862-.862-.862a.667.667 0 0 0-.942.943l1.333 1.333c.26.26.682.26.943 0l3.333-3.333Z"/></svg>
